X: 3
T: Hunting The Squirrel
R: jig
M: 6/8
L: 1/8
K: Gmaj
|:D|G2 d d2 e|d3 B2 A|GAB A2 D|GAB A2 D|
G2 d d2 e|d3 B2 A|GAB A2 A|1 G3 z2:|2 G3G AB||
|:c2 d edc|c2 d edc|c2 d e2 f|g3 f2e|
d2 B d2 e|d3 B2 A|GAB A2 A|1 G3G AB:|2 G3G z2||